dist/img/footer_bg.svg

<svg width="1440" height="301" viewBox="0 0 1440 301" fill="none" xmlns="http://www.w3.org/2000/svg"><g opacity=".5" clip-path="url(#clip0_2938_13152)"><path d="M-26 307.31v-1454m34.349 1454v-1454m34.349 1454v-1454m34.348 1454v-1454m34.349 1454v-1454m34.349 1454v-1454m34.349 1454v-1454m34.349 1454v-1454m34.349 1454v-1454m34.348 1454l.001-1454m34.348 1454v-1454m34.349 1454v-1454m34.349 1454v-1454m34.349 1454v-1454m34.349 1454v-1454m34.349 1454v-1454m34.348 1454v-1454m34.349 1454v-1454m34.349 1454v-1454m34.349 1454v-1454m34.349 1454v-1454m34.349 1454v-1454m34.348 1454v-1454m34.349 1454v-1454m34.349 1454v-1454m34.349 1454v-1454m34.349 1454v-1454m34.349 1454v-1454m34.348 1454v-1454m34.349 1454v-1454m34.354 1454v-1454m34.34 1454v-1454m34.35 1454v-1454m34.35 1454v-1454m34.35 1454v-1454m34.35 1454v-1454m34.35 1454v-1454m34.35 1454v-1454m34.35 1454v-1454m34.34 1454v-1454m34.35 1454v-1454m34.35 1454v-1454m34.35 1454v-1454m34.35 1454v-1454m0 1453.495H-3.774M1451 272.474H-3.774M1451 238.144H-3.774M1451 203.813H-3.774M1451 169.483H-3.774M1451 135.152H-3.774M1451 100.821H-3.774M1451 66.491H-3.774M1451 32.16H-3.774M1451-2.17H-3.774" stroke="url(#paint0_linear_2938_13152)" stroke-dasharray="4 4"/></g><defs><linearGradient id="paint0_linear_2938_13152" x1="712.5" y1="-605.984" x2="712.5" y2="307.31" gradientUnits="userSpaceOnUse"><stop stop-color="#fff"/><stop offset="1" stop-color="#fff" stop-opacity="0"/></linearGradient><clipPath id="clip0_2938_13152"><path fill="#fff" transform="rotate(180 725.5 150.155)" d="M0 0h1463v524H0z"/></clipPath></defs></svg>05H-3.77421M1451 272.474H-3.77421M1451 238.144H-3.77421M1451 203.813H-3.77421M1451 169.483H-3.77421M1451 135.152H-3.77421M1451 100.821H-3.77421M1451 66.4908H-3.77421M1451 32.1603H-3.77421M1451 -2.17026H-3.77421" stroke="url(#paint0_linear_2938_13152)" stroke-dasharray="4 4"/>
</g>
<defs>
<linearGradient id="paint0_linear_2938_13152" x1="712.5" y1="-605.984" x2="712.5" y2="307.31" gradientUnits="userSpaceOnUse">
<stop stop-color="white"/>
<stop offset="1" stop-color="white" stop-opacity="0"/>
</linearGradient>
<clipPath id="clip0_2938_13152">
<rect width="1463" height="524" fill="white" transform="matrix(-1 0 0 -1 1451 300.31)"/>
</clipPath>
</defs>
</svg>

<svg width="1440" height="301" viewBox="0 0 1440 301" fill="none" xmlns="http://www.w3.org/2000/svg">
<g opacity="0.5" clip-path="url(#clip0_2938_13152)">
<path d="M-26 307.31L-25.9999 -1146.69M8.34879 307.31L8.34891 -1146.69M42.6976 307.31L42.6977 -1146.69M77.0465 307.31L77.0466 -1146.69M111.395 307.31L111.395 -1146.69M145.744 307.31L145.744 -1146.69M180.093 307.31L180.093 -1146.69M214.442 307.31L214.442 -1146.69M248.791 307.31L248.791 -1146.69M283.139 307.31L283.14 -1146.69M317.488 307.31L317.488 -1146.69M351.837 307.31L351.837 -1146.69M386.186 307.31L386.186 -1146.69M420.535 307.31L420.535 -1146.69M454.884 307.31L454.884 -1146.69M489.233 307.31L489.233 -1146.69M523.581 307.31L523.581 -1146.69M557.93 307.31L557.93 -1146.69M592.279 307.31L592.279 -1146.69M626.628 307.31L626.628 -1146.69M660.977 307.31L660.977 -1146.69M695.326 307.31L695.326 -1146.69M729.674 307.31L729.674 -1146.69M764.023 307.31L764.023 -1146.69M798.372 307.31L798.372 -1146.69M832.721 307.31L832.721 -1146.69M867.07 307.31L867.07 -1146.69M901.419 307.31L901.419 -1146.69M935.767 307.31L935.767 -1146.69M970.116 307.31L970.116 -1146.69M1004.47 307.31L1004.47 -1146.69M1038.81 307.31L1038.81 -1146.69M1073.16 307.31L1073.16 -1146.69M1107.51 307.31L1107.51 -1146.69M1141.86 307.31L1141.86 -1146.69M1176.21 307.31L1176.21 -1146.69M1210.56 307.31L1210.56 -1146.69M1244.91 307.31L1244.91 -1146.69M1279.26 307.31L1279.26 -1146.69M1313.6 307.31L1313.6 -1146.69M1347.95 307.31L1347.95 -1146.69M1382.3 307.31L1382.3 -1146.69M1416.65 307.31L1416.65 -1146.69M1451 307.31L1451 -1146.69M1451 306.805H-3.77421M1451 272.474H-3.77421M1451 238.144H-3.77421M1451 203.813H-3.77421M1451 169.483H-3.77421M1451 135.152H-3.77421M1451 100.821H-3.77421M1451 66.4908H-3.77421M1451 32.1603H-3.77421M1451 -2.17026H-3.77421" stroke="url(#paint0_linear_2938_13152)" stroke-dasharray="4 4"/>
</g>
<defs>
<linearGradient id="paint0_linear_2938_13152" x1="712.5" y1="-605.984" x2="712.5" y2="307.31" gradientUnits="userSpaceOnUse">
<stop stop-color="white"/>
<stop offset="1" stop-color="white" stop-opacity="0"/>
</linearGradient>
<clipPath id="clip0_2938_13152">
<rect width="1463" height="524" fill="white" transform="matrix(-1 0 0 -1 1451 300.31)"/>
</clipPath>
</defs>
</svg>
